src/assets/filled/NoteText.svg

<?xml version="1.0" encoding="UTF-8"?>
<svg width="24" height="24" viewBox="0 0 24 24" xmlns="http://www.w3.org/2000/svg">
 <path d="M8.75 3.5V2C8.75 1.59 8.41 1.25 8 1.25C7.59 1.25 7.25 1.59 7.25 2V3.56C7.5 3.53 7.73 3.5 8 3.5H8.75Z"/>
 <path d="m16.75 3.56v-1.56c0-0.41-0.34-0.75-0.75-0.75s-0.75 0.34-0.75 0.75v1.5h0.75c0.27 0 0.5 0.03 0.75 0.06z"/>
 <path d="m16.75 3.56v1.44c0 0.41-0.34 0.75-0.75 0.75s-0.75-0.34-0.75-0.75v-1.5h-6.5v1.5c0 0.41-0.34 0.75-0.75 0.75s-0.75-0.34-0.75-0.75v-1.44c-2.95 0.27-4.25 2.17-4.25 4.94v8.5c0 3 1.5 5 5 5h8c3.5 0 5-2 5-5v-8.5c0-2.77-1.3-4.67-4.25-4.94zm-4.75 13.19h-4c-0.41 0-0.75-0.34-0.75-0.75s0.34-0.75 0.75-0.75h4c0.41 0 0.75 0.34 0.75 0.75s-0.34 0.75-0.75 0.75zm4-5h-8c-0.41 0-0.75-0.34-0.75-0.75s0.34-0.75 0.75-0.75h8c0.41 0 0.75 0.34 0.75 0.75s-0.34 0.75-0.75 0.75z"/>
</svg>

<svg width="24" height="24" viewBox="0 0 24 24"  xmlns="http://www.w3.org/2000/svg">
<path d="M8.75 3.5V2C8.75 1.59 8.41 1.25 8 1.25C7.59 1.25 7.25 1.59 7.25 2V3.56C7.5 3.53 7.73 3.5 8 3.5H8.75Z" />
<path d="M16.75 3.56V2C16.75 1.59 16.41 1.25 16 1.25C15.59 1.25 15.25 1.59 15.25 2V3.5H16C16.27 3.5 16.5 3.53 16.75 3.56Z" />
<path d="M16.75 3.56V5C16.75 5.41 16.41 5.75 16 5.75C15.59 5.75 15.25 5.41 15.25 5V3.5H8.75V5C8.75 5.41 8.41 5.75 8 5.75C7.59 5.75 7.25 5.41 7.25 5V3.56C4.3 3.83 3 5.73 3 8.5V17C3 20 4.5 22 8 22H16C19.5 22 21 20 21 17V8.5C21 5.73 19.7 3.83 16.75 3.56ZM12 16.75H8C7.59 16.75 7.25 16.41 7.25 16C7.25 15.59 7.59 15.25 8 15.25H12C12.41 15.25 12.75 15.59 12.75 16C12.75 16.41 12.41 16.75 12 16.75ZM16 11.75H8C7.59 11.75 7.25 11.41 7.25 11C7.25 10.59 7.59 10.25 8 10.25H16C16.41 10.25 16.75 10.59 16.75 11C16.75 11.41 16.41 11.75 16 11.75Z" />
</svg>
